X:23
T: Komámasszony, eresszen fel az ágyra...
L: 1/4
M: 4/4
K: F 
f/g/ g a g/f/ | d<c f2 | 
f/g/ g a g/f/ | e<d d2 | 
f d/c/ d/c/c/B/ | G<F B2 |
f d/c/ d/c/c/B/ | A<G G2 | 

